X:1060
T:Master Crowley's
Z: id:dc-reel-201
M:C
L:1/8
K:D Minor
C|DEFG ADFA|GEE2 cEGE|DEFG AFF2|GEcC EDD:|!
A|dAA2 defd|egg2 aege|dAA2 defd|eGce defe|!
dAA2 defd|egg2 aegf|e3c dfed|cAGE DEF|]!
G|A2AG AdcA|GEE2 GCEG|A2AG AdcA|GEcC EDDC|!
DAAG AdcA|GEE2 GCEG|A2AG AdcA|GEcC EDD|]!
